X: 31467
T: Paddy Taylor's
R: reel
M: 4/4
K: Amixolydian
||cAeA cAeA|cAec dBGA|Be (3eee dged|BGGA Bcde|
cAeA cAeA|cAec dBGA|Be (3eee dged|BGGA Bcde||
cA ~A2 agfa|gfed (3efg aA|ABcd efge|dGGA Bcde|
cA ~A2 agfa|gfed efge|f2 fd e2 ed|BGGA Bcde||

